public/images/plane.svg

<svg width="34" height="34" viewBox="0 0 34 34" fill="none" xmlns="http://www.w3.org/2000/svg">
<path d="M5.34792 29.75C5.04098 29.75 4.78716 29.6497 4.58646 29.449C4.38577 29.2483 4.28542 28.9944 4.28542 28.6875C4.28542 28.3806 4.38577 28.1267 4.58646 27.926C4.78716 27.7253 5.04098 27.625 5.34792 27.625H28.7229C29.0299 27.625 29.2837 27.7253 29.4844 27.926C29.6851 28.1267 29.7854 28.3806 29.7854 28.6875C29.7854 28.9944 29.6851 29.2483 29.4844 29.449C29.2837 29.6497 29.0299 29.75 28.7229 29.75H5.34792ZM7.29584 22.1708C7.05973 22.2417 6.82952 22.2299 6.60521 22.1354C6.38091 22.041 6.20973 21.8875 6.09167 21.675L3.43542 17.1417C3.27014 16.8819 3.24063 16.634 3.34688 16.3979C3.45313 16.1618 3.65973 16.0201 3.96667 15.9729C4.08473 15.9493 4.21459 15.9611 4.35625 16.0083C4.49792 16.0556 4.61598 16.1146 4.71042 16.1854L6.87084 18.0979L14.875 15.9375L9.5625 7.04792C9.35 6.69375 9.30868 6.35139 9.43855 6.02083C9.56841 5.69028 9.83403 5.46597 10.2354 5.34792C10.4243 5.30069 10.625 5.30069 10.8375 5.34792C11.05 5.39514 11.2271 5.47778 11.3688 5.59583L20.9667 14.2729L28.6167 12.2188C29.2542 12.0299 29.8326 12.142 30.3521 12.5552C30.8715 12.9684 31.1313 13.5174 31.1313 14.2021C31.1313 14.6507 30.9955 15.0521 30.724 15.4062C30.4524 15.7604 30.1042 15.9965 29.6792 16.1146L7.29584 22.1708Z" fill="black"/>
</svg>

<svg xmlns="http://www.w3.org/2000/svg" width="34" height="34" fill="none" viewBox="0 0 34 34"><path fill="#000" d="M5.348 29.75c-.307 0-.56-.1-.762-.301-.2-.2-.3-.455-.3-.762 0-.306.1-.56.3-.761.201-.2.455-.301.762-.301h23.375c.307 0 .56.1.761.301.201.2.301.455.301.762 0 .306-.1.56-.3.761-.201.2-.455.301-.762.301H5.348zm1.948-7.58a.993.993 0 0 1-.69-.035 1.028 1.028 0 0 1-.514-.46l-2.657-4.533c-.165-.26-.194-.508-.088-.744.106-.236.313-.378.62-.425a.756.756 0 0 1 .39.035c.14.048.259.107.353.177l2.16 1.913 8.005-2.16-5.313-8.89C9.35 6.694 9.31 6.35 9.44 6.02c.13-.33.395-.555.796-.673.19-.047.39-.047.603 0 .212.047.39.13.53.248l9.599 8.677 7.65-2.054c.637-.19 1.216-.077 1.735.336.52.413.78.962.78 1.647 0 .449-.137.85-.408 1.204a1.94 1.94 0 0 1-1.045.709L7.296 22.17z"/></svg>
